assets/1. F-P/Mirror/Color/Mirror-color.svg

<svg width="100%" height="100%" viewBox="0 0 32 32" fill="none" xmlns="http://www.w3.org/2000/svg">
<g filter="url(#filter0_iiiii_18_25504)">
<path fill-rule="evenodd" clip-rule="evenodd" d="M20.4975 5.43768C20.7725 6.27681 21.5631 6.98353 22.4263 7.1697C24.5602 7.62995 26.2656 9.54464 26.2656 11.8594C26.2656 12.875 25.95 13.8169 25.4115 14.5923C24.844 15.4095 24.844 16.9186 25.4115 17.7358C25.95 18.5112 26.2656 19.4531 26.2656 20.4688C26.2656 22.7502 24.609 24.643 22.5181 25.1376C21.5861 25.3581 20.7186 26.0757 20.3384 26.9547C19.6068 28.6464 17.9396 29.8281 16 29.8281C14.0558 29.8281 12.3853 28.6407 11.6564 26.9426C11.2814 26.0691 10.4263 25.3559 9.50247 25.1321C7.42206 24.6282 5.78125 22.739 5.78125 20.4688C5.78125 19.4531 6.09685 18.5112 6.63536 17.7358C7.20286 16.9186 7.20286 15.4095 6.63536 14.5923C6.09685 13.8169 5.78125 12.875 5.78125 11.8594C5.78125 9.55484 7.47201 7.64299 9.59699 7.17417C10.4517 6.98561 11.2295 6.28611 11.4992 5.45345C12.116 3.54917 13.8896 2.10938 16 2.10938C18.1012 2.10938 19.8762 3.54146 20.4975 5.43768Z" fill="url(#paint0_linear_18_25504)"/>
</g>
<g filter="url(#filter1_f_18_25504)">
<ellipse cx="16" cy="16" rx="7.09817" ry="11.2162" fill="url(#paint1_linear_18_25504)"/>
<ellipse cx="16" cy="16" rx="7.09817" ry="11.2162" fill="url(#paint2_linear_18_25504)"/>
</g>
<ellipse cx="16" cy="16" rx="6.64844" ry="10.7812" fill="url(#paint3_linear_18_25504)"/>
<path d="M16 26.7813C19.6719 26.7813 22.6484 21.9543 22.6484 16C22.6484 13.7723 22.2318 11.7024 21.5179 9.98401L10.2072 21.2948C11.348 24.5701 13.5148 26.7813 16 26.7813Z" fill="url(#paint4_linear_18_25504)"/>
<defs>
<filter id="filter0_iiiii_18_25504" x="5.18125" y="1.35938" width="21.5844" height="29.0688" filterUnits="userSpaceOnUse" color-interpolation-filters="sRGB">
<feFlood flood-opacity="0" result="BackgroundImageFix"/>
<feBlend mode="normal" in="SourceGraphic" in2="BackgroundImageFix" result="shape"/>
<feColorMatrix in="SourceAlpha" type="matrix" values="0 0 0 0 0 0 0 0 0 0 0 0 0 0 0 0 0 0 127 0" result="hardAlpha"/>
<feOffset dx="0.5" dy="-0.75"/>
<feGaussianBlur stdDeviation="0.5"/>
<feComposite in2="hardAlpha" operator="arithmetic" k2="-1" k3="1"/>
<feColorMatrix type="matrix" values="0 0 0 0 1 0 0 0 0 0.556863 0 0 0 0 0.360784 0 0 0 1 0"/>
<feBlend mode="normal" in2="shape" result="effect1_innerShadow_18_25504"/>
<feColorMatrix in="SourceAlpha" type="matrix" values="0 0 0 0 0 0 0 0 0 0 0 0 0 0 0 0 0 0 127 0" result="hardAlpha"/>
<feOffset dx="0.5"/>
<feGaussianBlur stdDeviation="0.5"/>
<feComposite in2="hardAlpha" operator="arithmetic" k2="-1" k3="1"/>
<feColorMatrix type="matrix" values="0 0 0 0 1 0 0 0 0 0.654902 0 0 0 0 0.207843 0 0 0 1 0"/>
<feBlend mode="normal" in2="effect1_innerShadow_18_25504" result="effect2_innerShadow_18_25504"/>
<feColorMatrix in="SourceAlpha" type="matrix" values="0 0 0 0 0 0 0 0 0 0 0 0 0 0 0 0 0 0 127 0" result="hardAlpha"/>
<feOffset dx="0.25"/>
<feGaussianBlur stdDeviation="0.325"/>
<feComposite in2="hardAlpha" operator="arithmetic" k2="-1" k3="1"/>
<feColorMatrix type="matrix" values="0 0 0 0 0.839216 0 0 0 0 0.552941 0 0 0 0 0.25098 0 0 0 1 0"/>
<feBlend mode="normal" in2="effect2_innerShadow_18_25504" result="effect3_innerShadow_18_25504"/>
<feColorMatrix in="SourceAlpha" type="matrix" values="0 0 0 0 0 0 0 0 0 0 0 0 0 0 0 0 0 0 127 0" result="hardAlpha"/>
<feOffset dy="-0.25"/>
<feGaussianBlur stdDeviation="0.325"/>
<feComposite in2="hardAlpha" operator="arithmetic" k2="-1" k3="1"/>
<feColorMatrix type="matrix" values="0 0 0 0 1 0 0 0 0 0.47451 0 0 0 0 0.419608 0 0 0 1 0"/>
<feBlend mode="normal" in2="effect3_innerShadow_18_25504" result="effect4_innerShadow_18_25504"/>
<feColorMatrix in="SourceAlpha" type="matrix" values="0 0 0 0 0 0 0 0 0 0 0 0 0 0 0 0 0 0 127 0" result="hardAlpha"/>
<feOffset dx="-0.6" dy="0.6"/>
<feGaussianBlur stdDeviation="0.5"/>
<feComposite in2="hardAlpha" operator="arithmetic" k2="-1" k3="1"/>
<feColorMatrix type="matrix" values="0 0 0 0 1 0 0 0 0 0.913725 0 0 0 0 0.34902 0 0 0 1 0"/>
<feBlend mode="normal" in2="effect4_innerShadow_18_25504" result="effect5_innerShadow_18_25504"/>
</filter>
<filter id="filter1_f_18_25504" x="8.15186" y="4.03381" width="15.6963" height="23.9324" filterUnits="userSpaceOnUse" color-interpolation-filters="sRGB">
<feFlood flood-opacity="0" result="BackgroundImageFix"/>
<feBlend mode="normal" in="SourceGraphic" in2="BackgroundImageFix" result="shape"/>
<feGaussianBlur stdDeviation="0.375" result="effect1_foregroundBlur_18_25504"/>
</filter>
<linearGradient id="paint0_linear_18_25504" x1="16.0234" y1="11.1094" x2="16.0234" y2="29.8281" gradientUnits="userSpaceOnUse">
<stop stop-color="#FFD445"/>
<stop offset="1" stop-color="#FFB555"/>
</linearGradient>
<linearGradient id="paint1_linear_18_25504" x1="20.5476" y1="6.6967" x2="13.4274" y2="26.2507" gradientUnits="userSpaceOnUse">
<stop stop-color="#FFBE5A"/>
<stop offset="1" stop-color="#FFBC40"/>
</linearGradient>
<linearGradient id="paint2_linear_18_25504" x1="10.4873" y1="23.6647" x2="20.1934" y2="20.512" gradientUnits="userSpaceOnUse">
<stop stop-color="#FFD559"/>
<stop offset="1" stop-color="#FFD559" stop-opacity="0"/>
</linearGradient>
<linearGradient id="paint3_linear_18_25504" x1="17.6875" y1="6.98438" x2="17.6875" y2="14.6719" gradientUnits="userSpaceOnUse">
<stop stop-color="#B6EEFF"/>
<stop offset="1" stop-color="#96EDFF"/>
</linearGradient>
<linearGradient id="paint4_linear_18_25504" x1="18.4375" y1="13.4219" x2="18.4375" y2="24.6094" gradientUnits="userSpaceOnUse">
<stop stop-color="#D2F9FF"/>
<stop offset="1" stop-color="#D2F9FF" stop-opacity="0"/>
</linearGradient>
</defs>
</svg>

<svg width="100%" height="100%" viewBox="0 0 32 32" xmlns="http://www.w3.org/2000/svg"><g filter="url(#a)"><path fill="url(#b)" fill-rule="evenodd" d="M20.498 5.438c.274.839 1.065 1.546 1.928 1.732 2.134.46 3.84 2.375 3.84 4.69a4.78 4.78 0 0 1-.854 2.732c-.568.817-.568 2.327 0 3.144.538.775.854 1.717.854 2.733 0 2.281-1.657 4.174-3.748 4.669-.932.22-1.8.938-2.18 1.817-.731 1.691-2.398 2.873-4.338 2.873-1.944 0-3.615-1.187-4.344-2.885-.375-.874-1.23-1.587-2.154-1.81-2.08-.505-3.72-2.394-3.72-4.664 0-1.016.315-1.958.853-2.733.568-.817.568-2.327 0-3.144a4.78 4.78 0 0 1-.854-2.733c0-2.304 1.691-4.216 3.816-4.685.855-.188 1.633-.888 1.902-1.72.617-1.905 2.39-3.345 4.501-3.345 2.101 0 3.876 1.432 4.497 3.329" clip-rule="evenodd"/></g><g filter="url(#c)"><ellipse cx="16" cy="16" fill="url(#d)" rx="7.098" ry="11.216"/><ellipse cx="16" cy="16" fill="url(#e)" rx="7.098" ry="11.216"/></g><ellipse cx="16" cy="16" fill="url(#f)" rx="6.648" ry="10.781"/><path fill="url(#g)" d="M16 26.781c3.672 0 6.648-4.827 6.648-10.781 0-2.228-.416-4.298-1.13-6.016l-11.31 11.31c1.14 3.276 3.307 5.487 5.792 5.487"/><defs><linearGradient id="b" x1="16.023" x2="16.023" y1="11.109" y2="29.828" gradientUnits="userSpaceOnUse"><stop stop-color="#FFD445"/><stop offset="1" stop-color="#FFB555"/></linearGradient><linearGradient id="d" x1="20.548" x2="13.427" y1="6.697" y2="26.251" gradientUnits="userSpaceOnUse"><stop stop-color="#FFBE5A"/><stop offset="1" stop-color="#FFBC40"/></linearGradient><linearGradient id="e" x1="10.487" x2="20.193" y1="23.665" y2="20.512" gradientUnits="userSpaceOnUse"><stop stop-color="#FFD559"/><stop offset="1" stop-color="#FFD559" stop-opacity="0"/></linearGradient><linearGradient id="f" x1="17.688" x2="17.688" y1="6.984" y2="14.672" gradientUnits="userSpaceOnUse"><stop stop-color="#B6EEFF"/><stop offset="1" stop-color="#96EDFF"/></linearGradient><linearGradient id="g" x1="18.438" x2="18.438" y1="13.422" y2="24.609" gradientUnits="userSpaceOnUse"><stop stop-color="#D2F9FF"/><stop offset="1" stop-color="#D2F9FF" stop-opacity="0"/></linearGradient><filter id="a" width="21.584" height="29.069" x="5.181" y="1.359" color-interpolation-filters="sRGB" filterUnits="userSpaceOnUse"><feFlood flood-opacity="0" result="BackgroundImageFix"/><feBlend in="SourceGraphic" in2="BackgroundImageFix" result="shape"/><feColorMatrix in="SourceAlpha" result="hardAlpha" values="0 0 0 0 0 0 0 0 0 0 0 0 0 0 0 0 0 0 127 0"/><feOffset dx=".5" dy="-.75"/><feGaussianBlur stdDeviation=".5"/><feComposite in2="hardAlpha" k2="-1" k3="1" operator="arithmetic"/><feColorMatrix values="0 0 0 0 1 0 0 0 0 0.556863 0 0 0 0 0.360784 0 0 0 1 0"/><feBlend in2="shape" result="effect1_innerShadow_18_25504"/><feColorMatrix in="SourceAlpha" result="hardAlpha" values="0 0 0 0 0 0 0 0 0 0 0 0 0 0 0 0 0 0 127 0"/><feOffset dx=".5"/><feGaussianBlur stdDeviation=".5"/><feComposite in2="hardAlpha" k2="-1" k3="1" operator="arithmetic"/><feColorMatrix values="0 0 0 0 1 0 0 0 0 0.654902 0 0 0 0 0.207843 0 0 0 1 0"/><feBlend in2="effect1_innerShadow_18_25504" result="effect2_innerShadow_18_25504"/><feColorMatrix in="SourceAlpha" result="hardAlpha" values="0 0 0 0 0 0 0 0 0 0 0 0 0 0 0 0 0 0 127 0"/><feOffset dx=".25"/><feGaussianBlur stdDeviation=".325"/><feComposite in2="hardAlpha" k2="-1" k3="1" operator="arithmetic"/><feColorMatrix values="0 0 0 0 0.839216 0 0 0 0 0.552941 0 0 0 0 0.25098 0 0 0 1 0"/><feBlend in2="effect2_innerShadow_18_25504" result="effect3_innerShadow_18_25504"/><feColorMatrix in="SourceAlpha" result="hardAlpha" values="0 0 0 0 0 0 0 0 0 0 0 0 0 0 0 0 0 0 127 0"/><feOffset dy="-.25"/><feGaussianBlur stdDeviation=".325"/><feComposite in2="hardAlpha" k2="-1" k3="1" operator="arithmetic"/><feColorMatrix values="0 0 0 0 1 0 0 0 0 0.47451 0 0 0 0 0.419608 0 0 0 1 0"/><feBlend in2="effect3_innerShadow_18_25504" result="effect4_innerShadow_18_25504"/><feColorMatrix in="SourceAlpha" result="hardAlpha" values="0 0 0 0 0 0 0 0 0 0 0 0 0 0 0 0 0 0 127 0"/><feOffset dx="-.6" dy=".6"/><feGaussianBlur stdDeviation=".5"/><feComposite in2="hardAlpha" k2="-1" k3="1" operator="arithmetic"/><feColorMatrix values="0 0 0 0 1 0 0 0 0 0.913725 0 0 0 0 0.34902 0 0 0 1 0"/><feBlend in2="effect4_innerShadow_18_25504" result="effect5_innerShadow_18_25504"/></filter><filter id="c" width="15.696" height="23.932" x="8.152" y="4.034" color-interpolation-filters="sRGB" filterUnits="userSpaceOnUse"><feFlood flood-opacity="0" result="BackgroundImageFix"/><feBlend in="SourceGraphic" in2="BackgroundImageFix" result="shape"/><feGaussianBlur result="effect1_foregroundBlur_18_25504" stdDeviation=".375"/></filter></defs></svg>
